public/img/workshop.svg

<svg fill="none" height="165" viewBox="0 0 165 165" width="165" xmlns="http://www.w3.org/2000/svg"><path d="m82.38 164.76c45.497 0 82.38-36.883 82.38-82.38 0-45.4972-36.883-82.38-82.38-82.38-45.4972 0-82.38 36.8828-82.38 82.38 0 45.497 36.8828 82.38 82.38 82.38z" fill="#3bd4ae"/><path d="m119.86 60.7502c-1.25-1.73-3.93-1.93-5.79-2.71-2.54-1.06-4.9-2.3901-6.98-4.2101-1.26-1.09-2.47-2.47-2.58-4.13-.16-2.34 1.88-4.3 2.1-6.64.2-2.19-1.48-4.38-3.65-4.75.77-1.97.09-4.4099-1.59-5.6899-1.6799-1.28-4.2099-1.3001-5.9099-.0301-.22.17-.45.36-.72.4-.76.11-1.1-.89-1.38-1.61-1.04-2.67-4.75-3.43-7.34-2.19-2.59 1.23-4.25 3.81-5.58 6.34-.56-3.17-4.69-4.89-7.58-3.47s-4.16 5.18-3.25 8.27c-2.98-1.37-6.89-.2299-8.66 2.5401s-1.17 6.7999 1.33 8.9299c-2.63.02-4.86 2.58-4.82 5.21s2.07 5.01 4.59 5.79c-1.68.97-2.95 2.77-2.96 4.72-.01 1.94 1.45 3.8901 3.38 4.1201.62.08 1.33.0099 1.79.4399.26.24.38.6.49.94.63 1.95 1.25 3.91 1.88 5.86l-1.07-.1999c-3.42-1.03-5.88-3.9201-8.43-6.4201-2.55-2.51-5.8-4.88-9.34-4.4499-2.77.34-5.11 2.4199-6.35 4.9199-1.25 2.5-1.55 5.36-1.53 8.15.04 6.5201 1.87 13.3101 6.45 17.9401 1.1 1.11 2.42 2.1098 3.97 2.2898 2.35.27 5.69-4.0899 7.46-5.6599 2.5-2.2099 3.01-2.54 6.26-3.94-2.88 4.01-5.77 8.2001-6.85 13.0099-.7 3.13-.6 6.38-.16 9.56.79 5.75 2.75 11.44 6.36 15.97 3.62 4.54 9.03 7.81 14.82 8.09 4.82.24 9.59-.35 14.04-2.21 2.32-.97 4.59-3.19 6.36-4.97 2.2699-2.29 3.2799-5.53 3.9799-8.68.47-2.11.82-4.29.42-6.41-.7-3.68-3.8099-6.71-7.4499-7.59-3.64-.87-7.65.32-10.42 2.85-1.95 1.78-3.33 4.77-1.98 7.04.39.66 1.1 1.22 1.85 1.1.61-.1 1.06-.6 1.47-1.05 1.38-1.49 3.64-2.79 5.32-1.65.99.67 1.58 3.64 1.32 4.8s-1.05 2.14-1.96 2.91c-3.47 2.93-9.32 1.26-12.74-1.74-3.42-2.99-4.21-8.55-1.76-12.38 4.09-6.4 14.02-6.08 19.21-11.6298 3.15-3.3701 4.9599-7.97 5.1699-12.5801.11-2.5-.92-5.38-1.7199-7.75-1.24-3.65-4.19-6.4599-7.35-8.68-3.16-2.22-6.62-3.9999-9.59-6.4499-2.35-1.94-4.47-4.5501-4.56-7.6001-.05-1.83.69-3.68 2-4.96l.63-.36c1.47 5.2 7.25 8.7801 12.56 7.7801.79-.15 1.62-.3901 2.39-.1501.58.18 1.05.6101 1.5 1.0101 3.2299 2.88 6.9699 5.3199 11.0999 6.6799 3.17 1.04 9.06 2.37 11.73-.5 1.03-1.12 1.01-2.9899.12-4.2199zm-25.4899-13.6001c-.42.32-.92.56-1.44.61-1.24.12-2.31-.8-3.22-1.65-.34-.32-.68-.64-.89-1.06-.18-.35-.25-.75-.25-1.14-.02-1.26.68-2.5 1.76-3.14s2.51-.66 3.6-.04l-.5.02c1.31.32 2.33 1.5301 2.49 2.8701.17 1.33-.48 2.7199-1.55 3.5299z" fill="#211a39"/></svg>

<svg width="165" height="165" viewBox="0 0 165 165" fill="none" xmlns="http://www.w3.org/2000/svg">
<path d="M82.38 164.76C127.877 164.76 164.76 127.877 164.76 82.38C164.76 36.8828 127.877 0 82.38 0C36.8828 0 0 36.8828 0 82.38C0 127.877 36.8828 164.76 82.38 164.76Z" fill="#3BD4AE"/>
<path d="M119.86 60.7502C118.61 59.0202 115.93 58.8202 114.07 58.0402C111.53 56.9802 109.17 55.6501 107.09 53.8301C105.83 52.7401 104.62 51.3601 104.51 49.7001C104.35 47.3601 106.39 45.4001 106.61 43.0601C106.81 40.8701 105.13 38.6801 102.96 38.3101C103.73 36.3401 103.05 33.9002 101.37 32.6202C99.6901 31.3402 97.1601 31.3201 95.4601 32.5901C95.2401 32.7601 95.0101 32.9501 94.7401 32.9901C93.9801 33.1001 93.6401 32.1001 93.3601 31.3801C92.3201 28.7101 88.6101 27.9501 86.0201 29.1901C83.4301 30.4201 81.7701 33.0001 80.4401 35.5301C79.8801 32.3601 75.7501 30.6401 72.8601 32.0601C69.9701 33.4801 68.7001 37.2401 69.6101 40.3301C66.6301 38.9601 62.7201 40.1002 60.9501 42.8702C59.1801 45.6402 59.7801 49.6701 62.2801 51.8001C59.6501 51.8201 57.4201 54.3801 57.4601 57.0101C57.5001 59.6401 59.5301 62.0201 62.0501 62.8001C60.3701 63.7701 59.1001 65.5701 59.0901 67.5201C59.0801 69.4601 60.5401 71.4102 62.4701 71.6402C63.0901 71.7202 63.8001 71.6501 64.2601 72.0801C64.5201 72.3201 64.6401 72.6801 64.7501 73.0201C65.3801 74.9701 66.0001 76.9301 66.6301 78.8801L65.5601 78.6802C62.1401 77.6502 59.6801 74.7601 57.1301 72.2601C54.5801 69.7501 51.3301 67.3801 47.7901 67.8102C45.0201 68.1502 42.6801 70.2301 41.4401 72.7301C40.1901 75.2301 39.8901 78.0901 39.9101 80.8801C39.9501 87.4002 41.7801 94.1902 46.3601 98.8202C47.4601 99.9302 48.7801 100.93 50.3301 101.11C52.6801 101.38 56.0201 97.0201 57.7901 95.4501C60.2901 93.2402 60.8001 92.9101 64.0501 91.5101C61.1701 95.5201 58.2801 99.7102 57.2001 104.52C56.5001 107.65 56.6001 110.9 57.0401 114.08C57.8301 119.83 59.7901 125.52 63.4001 130.05C67.0201 134.59 72.4301 137.86 78.2201 138.14C83.0401 138.38 87.8101 137.79 92.2601 135.93C94.5801 134.96 96.8501 132.74 98.6201 130.96C100.89 128.67 101.9 125.43 102.6 122.28C103.07 120.17 103.42 117.99 103.02 115.87C102.32 112.19 99.2101 109.16 95.5701 108.28C91.9301 107.41 87.9201 108.6 85.1501 111.13C83.2001 112.91 81.8201 115.9 83.1701 118.17C83.5601 118.83 84.2701 119.39 85.0201 119.27C85.6301 119.17 86.0801 118.67 86.4901 118.22C87.8701 116.73 90.1301 115.43 91.8101 116.57C92.8001 117.24 93.3901 120.21 93.1301 121.37C92.8701 122.53 92.0801 123.51 91.1701 124.28C87.7001 127.21 81.8501 125.54 78.4301 122.54C75.0101 119.55 74.2201 113.99 76.6701 110.16C80.7601 103.76 90.6901 104.08 95.8801 98.5302C99.0301 95.1601 100.84 90.5602 101.05 85.9501C101.16 83.4501 100.13 80.5701 99.3301 78.2001C98.0901 74.5501 95.1401 71.7402 91.9801 69.5201C88.8201 67.3001 85.3601 65.5202 82.3901 63.0702C80.0401 61.1302 77.9201 58.5201 77.8301 55.4701C77.7801 53.6401 78.5201 51.7901 79.8301 50.5101L80.4601 50.1501C81.9301 55.3501 87.7101 58.9302 93.0201 57.9302C93.8101 57.7802 94.6401 57.5401 95.4101 57.7801C95.9901 57.9601 96.4601 58.3902 96.9101 58.7902C100.14 61.6702 103.88 64.1101 108.01 65.4701C111.18 66.5101 117.07 67.8401 119.74 64.9701C120.77 63.8501 120.75 61.9802 119.86 60.7502ZM94.3701 47.1501C93.9501 47.4701 93.4501 47.7101 92.9301 47.7601C91.6901 47.8801 90.6201 46.9601 89.7101 46.1101C89.3701 45.7901 89.0301 45.4701 88.8201 45.0501C88.6401 44.7001 88.5701 44.3001 88.5701 43.9101C88.5501 42.6501 89.2501 41.4101 90.3301 40.7701C91.4101 40.1301 92.8401 40.1101 93.9301 40.7301L93.4301 40.7501C94.7401 41.0701 95.7601 42.2802 95.9201 43.6202C96.0901 44.9502 95.4401 46.3401 94.3701 47.1501Z" fill="#211A39"/>
</svg>
